X: 0
T: Lantti
O: trad Finland
Z: John Chambers <jc@trillian.mit.edu>
P: F2 Bb2 ... (4-6 times)
K:
% - - - - - - - - - - - - - - - - - - - - - - - - -
P: Lantti   [F]
M: 2/4
L: 1/16
K: F
|: "F"A2AA A2B2 | c2c2 c3c | "C7"c2a2 g3c | "F"c2g2 f3B \
|  "F"A2AA A2B2 | c2c2 c3c | "C7"c2a2 g3e | "F"f2f2 f4 :|
|: "F"a4 f4 | c2c2 c4 | "F"a4 f4 | c2c2 c4 \
| "Bb"b2b2 b4 | "F"a2a2 a4 | "C7"g2g2 gbge | "F"g2f2 f4 :|
% - - - - - - - - - - - - - - - - - - - - - - - - -
P: Lantti   [Bb]
Z: John Chambers <jc@trillian.mit.edu>
M: 2/4
L: 1/16
K: Bb
|: "Bb"D2DD D2E2 | F2F2 F3F | "F7"F2d2 c3F | "Bb"F2c2 B3E \
|  "Bb"D2DD D2E2 | F2F2 F3F | "F7"F2d2 c3A | "Bb"B2B2 B4 :|
|: "Bb"d4 B4 | F2F2 F4 | "Bb"d4 B4 | F2F2 F4 \
| "Eb"e2e2 e4 | "Bb"d2d2 d4 | "F7"c2c2 cecA | "Bb"c2B2 B4 :|

%%newpage

%%sep 1 1 500

